client/src/assets/ar-view-logo-purple.svg

<svg width="247" height="83" viewBox="0 0 247 83" fill="none" xmlns="http://www.w3.org/2000/svg">
<g clip-path="url(#clip0_570_2365)">
<path d="M11 26.7V76.8C11 77.6 10.6 78 9.8 78H0.6C0.4 77.9 0 77.9 0 77.2V0C17.9 18.7 35.4 36.9 53.1 55.6H53.5V5.8C53.5 5.06667 53.8667 4.7 54.6 4.7H63.8C64.3333 4.7 64.6 4.93333 64.6 5.4V82.3C46.5 63.7 28.9 45 11 26.7Z" fill="#396CAB"/>
<path d="M127.7 54.5C127.7 68 116.7 79 102.9 79C89.1002 79 78.7002 68 78.7002 54.2C78.7002 40.4 90.0002 30 103.1 30C116.2 30 127.7 41 127.7 54.5Z" fill="#214185"/>
<path d="M132.8 31.8002H143.4C144.2 31.8002 144.5 32.2002 144.5 32.5002C148.2 40.6002 151.8 48.6002 155.5 56.7002C155.5 57.1002 155.9 57.5002 156.3 57.8002C156.7 57.4002 156.7 57.0002 156.7 57.0002C160.4 48.9002 164 40.9002 168 32.5002C168.4 32.1002 168.4 31.7002 169.1 31.7002H180C171.9 48.2002 164.2 64.2002 156.2 80.7002C148.5 64.4002 140.8 48.3002 132.8 31.8002Z" fill="#396CAB"/>
<path d="M226.8 35.7998C229.7 32.4998 233 30.2998 237.8 30.2998C240.7 30.2998 243.6 31.3998 246.2 32.7998C244.7 36.0998 242.9 38.9998 241.4 42.2998C241 41.8998 240.6 41.8998 240.3 41.4998C238.8 40.3998 237 39.9998 235.1 39.9998C231.8 39.9998 229.3 41.4998 227.8 44.7998C227 46.9998 226.3 49.1998 226.3 51.3998V76.1998C226.3 76.9331 225.933 77.2998 225.2 77.2998H216.4C215.6 77.2998 215.6 76.8998 215.6 76.4998V32.2998C215.6 31.4998 216 31.4998 216.4 31.4998H225.2C226 31.4998 226 31.8998 226 32.2998V34.4998C226.4 35.1998 226.4 35.3998 226.8 35.7998C226.533 35.7998 226.533 35.7998 226.8 35.7998Z" fill="#396CAB"/>
<path d="M200.1 54.8002V76.7002C200.1 77.4335 199.834 77.8002 199.3 77.8002H190.5C189.967 77.8002 189.7 77.5335 189.7 77.0002V32.4002C189.7 31.7002 190.1 31.7002 190.5 31.7002H199.3C199.834 31.7002 200.1 31.9335 200.1 32.4002V54.8002Z" fill="#396CAB"/>
<path d="M195 5.50015C198.3 5.10015 201.9 8.00015 201.9 12.4002C201.9 16.1002 199 19.3002 195 19.3002C191 19.3002 188.1 16.4002 188.1 12.4002C188.1 8.80015 191.3 5.50015 195 5.50015Z" fill="#396CAB"/>
<path d="M96.2 50.2002C93.3 47.2002 90.4 43.9002 87.5 41.0002C88.5 39.9002 89.7 38.5002 90.8 37.3002C93.7 40.2002 96.3 43.1002 99.2 46.1002V38.0002C99.2 37.6002 99.2 37.2002 100 37.2002H104V55.1002H88.1V50.0002H96.2V50.2002Z" fill="white"/>
<path d="M94.2002 56.7H104.5C105.034 56.7 105.3 56.4333 105.3 55.9V45.3C105.3 44.5 105.7 44.5 106.1 44.5H110.5V57.8C110.5 58.6 110.5 58.9 111.3 59.3C113.5 61.5 115.7 63.7 118.2 66.2C118.467 66.4667 118.734 66.6 119 66.6L115.3 70.3L114.9 69.9L108 63C107.6 62.6 107.2 62.6 106.5 62.6H95.1002V56.7H94.2002Z" fill="white"/>
</g>
<defs>
<clipPath id="clip0_570_2365">
<rect width="246.2" height="82.3" fill="white"/>
</clipPath>
</defs>
</svg>

<?xml version="1.0" encoding="utf-8"?>
<!-- Generator: Adobe Illustrator 27.5.0, SVG Export Plug-In . SVG Version: 6.00 Build 0)  -->
<svg version="1.1" id="Layer_1" xmlns="http://www.w3.org/2000/svg" xmlns:xlink="http://www.w3.org/1999/xlink" x="0px" y="0px"
	 viewBox="0 0 246.2 82.3" style="enable-background:new 0 0 246.2 82.3;" xml:space="preserve">
<style type="text/css">
	.st0{fill:#396CAB;}
	.st1{fill:#214185;}
	.st2{fill:#FFFFFF;}
</style>
<g>
	<path class="st0" d="M11,26.7v1.1c0,16.5,0,32.5,0,49C11,78,11,78,9.8,78c-2.9,0-6.2,0-9.2,0C0.4,77.9,0,77.9,0,77.2
		C0,51.6,0,26,0,0.4c0,0,0,0,0-0.4c17.9,18.7,35.4,36.9,53.1,55.6h0.4c0-0.4,0-0.8,0-1.1c0-16.1,0-32.5,0-48.7c0-1.1,0-1.1,1.1-1.1
		c2.9,0,6.2,0,9.2,0c0.8,0,0.8,0,0.8,0.7c0,25.2,0,50.4,0,76.1c0,0,0,0.4,0,0.8C46.5,63.7,28.9,45,11,26.7L11,26.7z"/>
	<path class="st1" d="M127.7,54.5c0,13.5-11,24.5-24.8,24.5c-13.5,0-24.2-11-24.2-24.8C78.7,40.6,90,30,103.1,30
		C116.7,30,127.7,41,127.7,54.5z"/>
	<path class="st0" d="M132.8,31.8c0.4,0,0.8,0,0.8,0c3.3,0,6.6,0,9.8,0c0.8,0,1.1,0.4,1.1,0.7c3.7,8.1,7.3,16.1,11,24.2
		c0,0.4,0.4,0.8,0.8,1.1c0.4-0.4,0.4-0.8,0.4-0.8c3.7-8.1,7.3-16.1,11.3-24.5c0.4-0.4,0.4-0.8,1.1-0.8c3.3,0,6.9,0,10.2,0
		c0.4,0,0.4,0,0.7,0c-8.1,16.5-15.8,32.5-23.8,49C148.5,64.4,140.8,48.3,132.8,31.8z"/>
	<path class="st0" d="M226.8,35.8c2.9-3.3,6.2-5.5,11-5.5c2.9,0,5.8,1.1,8.4,2.5c-1.5,3.3-3.3,6.2-4.8,9.5c-0.4-0.4-0.8-0.4-1.1-0.8
		c-1.5-1.1-3.3-1.5-5.2-1.5c-3.3,0-5.8,1.5-7.3,4.8c-0.8,2.2-1.5,4.4-1.5,6.6c0,8.4,0,16.5,0,24.8c0,1.1,0,1.1-1.1,1.1
		c-2.9,0-5.8,0-8.8,0c-0.8,0-0.8-0.4-0.8-0.8c0-14.6,0-29.6,0-44.2c0-0.8,0.4-0.8,0.8-0.8c2.9,0,5.8,0,8.8,0c0.8,0,0.8,0.4,0.8,0.8
		c0,0.8,0,1.5,0,2.2C226.4,35.2,226.4,35.4,226.8,35.8C226.4,35.8,226.4,35.8,226.8,35.8z"/>
	<path class="st0" d="M200.1,54.8c0,7.3,0,14.6,0,21.9c0,1.1,0,1.1-0.8,1.1c-2.9,0-5.8,0-8.8,0c-0.8,0-0.8,0-0.8-0.8
		c0-15,0-29.6,0-44.6c0-0.7,0.4-0.7,0.8-0.7c2.9,0,5.8,0,8.8,0c0.8,0,0.8,0,0.8,0.7C200.1,39.8,200.1,47.5,200.1,54.8z"/>
	<path class="st0" d="M195,5.5c3.3-0.4,6.9,2.5,6.9,6.9c0,3.7-2.9,6.9-6.9,6.9c-4,0-6.9-2.9-6.9-6.9C188.1,8.8,191.3,5.5,195,5.5z"
		/>
	<path class="st2" d="M96.2,50.2c-2.9-3-5.8-6.3-8.7-9.2c1-1.1,2.2-2.5,3.3-3.7c2.9,2.9,5.5,5.8,8.4,8.8c0-0.4,0-0.8,0-0.8
		c0-2.5,0-4.8,0-7.3c0-0.4,0-0.8,0.8-0.8c1.5,0,2.5,0,4,0v17.9H88.1v-5.1H96.2L96.2,50.2z"/>
	<path class="st2" d="M94.2,56.7c0.4,0,0.8,0,1.1,0c2.9,0,6.2,0,9.2,0c0.8,0,0.8,0,0.8-0.8c0-3.7,0-7.3,0-10.6
		c0-0.8,0.4-0.8,0.8-0.8c1.5,0,2.9,0,4.4,0v0.8c0,4,0,8.1,0,12.5c0,0.8,0,1.1,0.8,1.5c2.2,2.2,4.4,4.4,6.9,6.9
		c0.4,0.4,0.4,0.4,0.8,0.4c-1.5,1.5-2.5,2.5-3.7,3.7l-0.4-0.4c-2.2-2.2-4.8-4.8-6.9-6.9c-0.4-0.4-0.8-0.4-1.5-0.4
		c-3.7,0-6.9,0-10.6,0h-0.8v-5.9H94.2z"/>
</g>
</svg>
